symbols/web/directions_railway/materialsymbolsoutlined/directions_railway_wght500gradN25_24px.svg

<svg xmlns="http://www.w3.org/2000/svg" height="24" width="24"><path d="M5.925 20.975V19.95l1.475-1q-1.425-.1-2.4-1.15-.975-1.05-.975-2.525V6.05q0-2.125 1.913-3.1Q7.85 1.975 12 1.975q4.275 0 6.125.95 1.85.95 1.85 3.125v9.225q0 1.475-.975 2.525-.975 1.05-2.4 1.15l1.475 1v1.025Zm.25-10.85h11.65v-3.1H6.175ZM16.225 12H6.175h11.65H16.225ZM12 15.9q.6 0 1.025-.425.425-.425.425-1.025 0-.6-.425-1.025Q12.6 13 12 13q-.6 0-1.025.425-.425.425-.425 1.025 0 .6.425 1.025.425.425 1.025.425Zm-4.225.975h8.45q.7 0 1.15-.462.45-.463.45-1.138V12H6.175v3.275q0 .675.45 1.138.45.462 1.15.462ZM12 4.125q-2.2 0-3.575.262Q7.05 4.65 6.5 5.15h11.025q-.425-.5-1.787-.763-1.363-.262-3.738-.262Zm0 1.025h5.525H6.5 12Z"/></svg>

<svg xmlns="http://www.w3.org/2000/svg" height="24" width="24"><path d="M5.925 20.975V19.95L7.4 18.95Q5.975 18.85 5 17.8Q4.025 16.75 4.025 15.275V6.05Q4.025 3.925 5.938 2.95Q7.85 1.975 12 1.975Q16.275 1.975 18.125 2.925Q19.975 3.875 19.975 6.05V15.275Q19.975 16.75 19 17.8Q18.025 18.85 16.6 18.95L18.075 19.95V20.975ZM6.175 10.125H17.825V7.025H6.175ZM16.225 12H7.775Q7.075 12 6.625 12Q6.175 12 6.175 12H17.825Q17.825 12 17.375 12Q16.925 12 16.225 12ZM12 15.9Q12.6 15.9 13.025 15.475Q13.45 15.05 13.45 14.45Q13.45 13.85 13.025 13.425Q12.6 13 12 13Q11.4 13 10.975 13.425Q10.55 13.85 10.55 14.45Q10.55 15.05 10.975 15.475Q11.4 15.9 12 15.9ZM7.775 16.875H16.225Q16.925 16.875 17.375 16.413Q17.825 15.95 17.825 15.275V12H6.175V15.275Q6.175 15.95 6.625 16.413Q7.075 16.875 7.775 16.875ZM12 4.125Q9.8 4.125 8.425 4.387Q7.05 4.65 6.5 5.15H17.525Q17.1 4.65 15.738 4.387Q14.375 4.125 12 4.125ZM12 5.15Q14.375 5.15 15.738 5.15Q17.1 5.15 17.525 5.15H6.5Q7.05 5.15 8.425 5.15Q9.8 5.15 12 5.15Z"/></svg>
